X: 221
T: Miss Wedderburn Colvill's Favorite
C: William Shepherd (17??-1812)
R: march, reel
B: William Shepherd "2nd Collection" 1800 p.22 #1
F: http://imslp.org/wiki/File:PMLP73094-Shepherd_Collections_HMT.pdf
Z: 2012 John Chambers <jc:trillian.mit.edu>
M: 2/4
L: 1/8
K: B
F |\
.B.B(TBd) | fffd/B/ | .c.c(Tcd) | {f}e2dc |\
.B.B(Bd) | f{a}b fd | cgfA | {c}B2-B :|
A/B/ |\
.c.c(Tcd) | .e.e.ed/c/ | .d.d(Tde) | {g}f2ed |\
.c.c(cd) | .e.e.e.d | cgfB | .B/.A/.c/.B/ (B/A/).G/.F/ |
.B.B(TBd) | .f.f.fd/B/ | .c.c(Tcd) | e2dc |\
.B.B(Bd) | f{a}bfd | cgfA | {c}B2B |]
